X:279
T: Arnold's Circle
O: England
M: 6/8
L: 1/8
K: D
FE               |: "D" A2 A BA^G | A2F D2E       | F2F G2F        |"G" E2B, B,CD|
"A7" E2F E2C     |A,CE A3         |[1 "D" A^GA B2A| F3-FFG         :|\
[2 "A7" A^GA B2 C| D3-DDE         |
|: "D"F2A, F2A      | F3-F2E         | DEF AGF       |G3 FEF          | "A7" GBA GFE|
DCB, A,3         | [1 "D" A^GA B2A| F3-FDE        :|[2 "D" A^GA B2C| D3-D3       |


